img/youtube.svg

<svg clip-rule="evenodd" fill-rule="evenodd" stroke-linejoin="round" stroke-miterlimit="2" viewBox="0 0 100 80" xmlns="http://www.w3.org/2000/svg"><path d="m834.802 655.689c-.465-4.576-4.133-8.167-8.718-8.534-.63-.05-1.278-.102-1.936-.155-10.082-.806-20.214-.806-30.296 0-.658.053-1.306.105-1.936.155-4.585.367-8.253 3.958-8.718 8.534v.002c-.797 7.852-.797 15.766 0 23.618v.002c.465 4.576 4.133 8.167 8.718 8.534.63.05 1.278.102 1.936.155 10.082.806 20.214.806 30.296 0 .658-.053 1.306-.105 1.936-.155 4.585-.367 8.253-3.958 8.718-8.534 0-.001 0-.001 0-.002.797-7.852.797-15.766 0-23.618 0-.001 0-.001 0-.002zm-19.628 10.05c.652.345 1.06 1.023 1.06 1.761s-.408 1.416-1.06 1.761c-2.621 1.387-6.238 3.302-8.749 4.632-.618.327-1.361.306-1.96-.054-.599-.361-.965-1.009-.965-1.707 0-2.717 0-6.547 0-9.264 0-.698.366-1.346.965-1.707.599-.36 1.342-.381 1.96-.054 2.511 1.33 6.128 3.245 8.749 4.632z" fill="#b00" transform="matrix(1.89334 0 0 1.87603 -1481.728131 -1212.6582)"/></svg>

<?xml version="1.0" encoding="UTF-8" standalone="no"?>
<!DOCTYPE svg PUBLIC "-//W3C//DTD SVG 1.1//EN" "http://www.w3.org/Graphics/SVG/1.1/DTD/svg11.dtd">
<svg width="100%" height="100%" viewBox="0 0 100 80" version="1.1" xmlns="http://www.w3.org/2000/svg" xmlns:xlink="http://www.w3.org/1999/xlink" xml:space="preserve" xmlns:serif="http://www.serif.com/" style="fill-rule:evenodd;clip-rule:evenodd;stroke-linejoin:round;stroke-miterlimit:2;">
    <g transform="matrix(1,0,0,1,0.0818687,-10.0082)">
        <g id="Youtube" transform="matrix(1.89334,0,0,1.87603,-1481.81,-1202.65)">
            <path d="M834.802,655.689C834.337,651.113 830.669,647.522 826.084,647.155C825.454,647.105 824.806,647.053 824.148,647C814.066,646.194 803.934,646.194 793.852,647C793.194,647.053 792.546,647.105 791.916,647.155C787.331,647.522 783.663,651.113 783.198,655.689C783.198,655.69 783.198,655.69 783.198,655.691C782.401,663.543 782.401,671.457 783.198,679.309C783.198,679.31 783.198,679.31 783.198,679.311C783.663,683.887 787.331,687.478 791.916,687.845C792.546,687.895 793.194,687.947 793.852,688C803.934,688.806 814.066,688.806 824.148,688C824.806,687.947 825.454,687.895 826.084,687.845C830.669,687.478 834.337,683.887 834.802,679.311C834.802,679.31 834.802,679.31 834.802,679.309C835.599,671.457 835.599,663.543 834.802,655.691C834.802,655.69 834.802,655.69 834.802,655.689ZM815.174,665.739C815.826,666.084 816.234,666.762 816.234,667.5C816.234,668.238 815.826,668.916 815.174,669.261C812.553,670.648 808.936,672.563 806.425,673.893C805.807,674.22 805.064,674.199 804.465,673.839C803.866,673.478 803.5,672.83 803.5,672.132C803.5,669.415 803.5,665.585 803.5,662.868C803.5,662.17 803.866,661.522 804.465,661.161C805.064,660.801 805.807,660.78 806.425,661.107C808.936,662.437 812.553,664.352 815.174,665.739Z" style="fill:#bb0000;"/>
        </g>
    </g>
</svg>
